X: 39563
T: Teann A-nall
R: waltz
M: 3/4
K: Gmajor
L:1/4
D2E|G2B|B2A|G3|B2A|B2d|edB|A3|
B2d|B2A|G2E|D3|E2G|A2B|A3|G3||

